;Generated with Cura_SteamEngine 15.01
; Default start code
G28 ; Home extruder
G1 Z15 F100
M107 ; Turn off fan
G90 ; Absolute positioning
M82 ; Extruder in absolute mode
M190 S50
; Activate all used extruder
M104 T0 S210
G92 E0 ; Reset extruder position
; Wait for all used extruders to reach temperature
M109 T0 S210
;Layer count: 255
;LAYER:0
M107
G0 F9000 X153.672 Y86.943 Z0.300
G0 X153.848 Y86.810
;TYPE:SKIRT
G1 F1800 X153.672 Y86.943 E0.01101
G1 X153.672 Y92.977 E0.31204
G1 X153.821 Y93.090 E0.32137
G1 X154.095 Y93.261 E0.33749
G1 X154.387 Y93.411 E0.35386
G1 X154.693 Y93.536 E0.37036
G1 X154.995 Y93.629 E0.38612
G1 X155.362 Y93.710 E0.40487
G1 X155.476 Y93.727 E0.41062
G1 X155.609 Y93.741 E0.41729
G1 X155.972 Y93.757 E0.43542
G1 X156.333 Y93.741 E0.45345
G1 X156.425 Y93.732 E0.45806
G1 X156.785 Y93.669 E0.47629
G1 X157.099 Y93.586 E0.49250
G1 X157.405 Y93.476 E0.50872
G1 X157.701 Y93.340 E0.52497
G1 X157.994 Y93.174 E0.54177
G1 X158.251 Y92.997 E0.55734
G1 X158.272 Y92.980 E0.55869
G1 X158.272 Y86.944 E0.85983
G1 X158.124 Y86.832 E0.86909
G1 X157.848 Y86.659 E0.88534
G1 X157.550 Y86.506 E0.90205
G1 X157.257 Y86.386 E0.91785
G1 X156.923 Y86.282 E0.93530
G1 X155.936 Y86.046 E0.98593
G1 X154.833 Y86.338 E1.04285
G1 X154.535 Y86.445 E1.05865
G1 X154.245 Y86.578 E1.07457
G1 X153.918 Y86.764 E1.09334
G1 X153.848 Y86.810 E1.09751
G0 F9000 X147.921 Y79.165
G1 F1800 X148.829 Y78.526 E1.15291
G1 X149.783 Y77.967 E1.20807
G1 X150.786 Y77.488 E1.26353
G1 X151.790 Y77.108 E1.31708
G1 X152.394 Y76.921 E1.34863
G1 X153.401 Y76.681 E1.40027
G1 X154.272 Y76.529 E1.44439
G1 X154.272 Y75.857 E1.47791
G1 X156.088 Y76.212 E1.57023
G1 X157.672 Y75.935 E1.65045
G1 X157.672 Y76.521 E1.67969
G1 X159.030 Y76.786 E1.74872
G1 X160.095 Y77.087 E1.80393
G1 X161.136 Y77.477 E1.85939
G1 X162.139 Y77.956 E1.91485
G1 X163.096 Y78.513 E1.97009
G1 X163.977 Y79.132 E2.02381
G1 X164.471 Y79.527 E2.05536
G1 X165.260 Y80.246 E2.10862
G1 X166.014 Y81.059 E2.16394
G1 X166.697 Y81.932 E2.21924
G1 X167.024 Y82.430 E2.24896
G1 X171.672 Y82.430 E2.48085
G1 X171.672 Y97.490 E3.23220
G1 X166.569 Y97.490 E3.48679
G1 X166.421 Y97.701 E3.49964
G1 X165.680 Y98.576 E3.55685
G1 X164.868 Y99.385 E3.61403
G1 X163.988 Y100.119 E3.67120
G1 X163.048 Y100.776 E3.72842
G1 X162.052 Y101.347 E3.78570
G1 X161.013 Y101.831 E3.84288
G1 X159.934 Y102.223 E3.90016
G1 X158.827 Y102.518 E3.95731
G1 X157.701 Y102.717 E4.01436
G1 X156.593 Y102.816 E4.06986
G1 X155.939 Y102.831 E4.10249
G1 X154.837 Y102.783 E4.15752
G1 X153.702 Y102.635 E4.21463
G1 X152.581 Y102.390 E4.27188
G1 X151.487 Y102.046 E4.32909
G1 X150.427 Y101.611 E4.38625
G1 X149.407 Y101.085 E4.44351
G1 X148.438 Y100.471 E4.50074
G1 X147.525 Y99.778 E4.55793
G1 X146.677 Y99.005 E4.61517
G1 X145.899 Y98.165 E4.67229
G1 X145.377 Y97.490 E4.71487
G1 X140.272 Y97.490 E4.96956
G1 X140.272 Y82.430 E5.72090
G1 X144.905 Y82.430 E5.95204
G1 X144.917 Y82.409 E5.95325
G1 X145.564 Y81.504 E6.00875
G1 X146.283 Y80.661 E6.06403
G1 X147.069 Y79.879 E6.11934
G1 X147.921 Y79.165 E6.17480
G0 F9000 X128.161 Y89.533
G1 F1800 X128.469 Y90.273 E6.21479
G1 X128.712 Y91.041 E6.25498
G1 X128.885 Y91.825 E6.29504
G1 X128.991 Y92.619 E6.33500
G1 X129.026 Y93.418 E6.37490
G1 X128.994 Y94.223 E6.41509
G1 X128.887 Y95.023 E6.45536
G1 X128.715 Y95.801 E6.49511
G1 X128.475 Y96.569 E6.53526
G1 X128.166 Y97.314 E6.57549
G1 X127.796 Y98.025 E6.61548
G1 X127.366 Y98.700 E6.65541
G1 X126.879 Y99.339 E6.69549
G1 X126.332 Y99.933 E6.73578
G1 X125.743 Y100.473 E6.77565
G1 X125.108 Y100.961 E6.81560
G1 X124.432 Y101.394 E6.85565
G1 X123.718 Y101.767 E6.89584
G1 X122.976 Y102.074 E6.93590
G1 X122.212 Y102.315 E6.97587
G1 X121.426 Y102.490 E7.01604
G1 X120.629 Y102.595 E7.05615
G1 X119.834 Y102.630 E7.09585
G1 X119.032 Y102.598 E7.13590
G1 X118.229 Y102.492 E7.17630
G1 X117.449 Y102.318 E7.21618
G1 X116.684 Y102.080 E7.25615
G1 X115.937 Y101.771 E7.29648
G1 X115.228 Y101.401 E7.33638
G1 X114.551 Y100.971 E7.37639
G1 X113.911 Y100.481 E7.41660
G1 X113.321 Y99.939 E7.45657
G1 X112.776 Y99.347 E7.49672
G1 X112.290 Y98.711 E7.53665
G1 X111.857 Y98.037 E7.57662
G1 X111.486 Y97.323 E7.61676
G1 X111.178 Y96.583 E7.65675
G1 X110.935 Y95.815 E7.69694
G1 X110.762 Y95.031 E7.73699
G1 X110.656 Y94.236 E7.77701
G1 X110.621 Y93.433 E7.81711
G1 X110.654 Y92.633 E7.85705
G1 X110.760 Y91.833 E7.89731
G1 X110.932 Y91.055 E7.93707
G1 X111.172 Y90.287 E7.97721
G1 X111.481 Y89.542 E8.01745
G1 X111.850 Y88.832 E8.05737
G1 X112.281 Y88.155 E8.09741
G1 X112.768 Y87.517 E8.13745
G1 X113.315 Y86.921 E8.17781
G1 X113.905 Y86.381 E8.21771
G1 X114.540 Y85.894 E8.25764
G1 X115.216 Y85.462 E8.29766
G1 X115.928 Y85.090 E8.33774
G1 X116.668 Y84.784 E8.37769
G1 X117.435 Y84.540 E8.41785
G1 X118.224 Y84.365 E8.45817
G1 X119.018 Y84.261 E8.49812
G1 X119.814 Y84.226 E8.53787
G1 X120.615 Y84.258 E8.57786
G1 X121.415 Y84.363 E8.61812
G1 X122.198 Y84.536 E8.65812
G1 X122.966 Y84.777 E8.69828
G1 X123.708 Y85.085 E8.73836
G1 X124.420 Y85.455 E8.77839
G1 X125.097 Y85.886 E8.81843
G1 X125.734 Y86.374 E8.85847
G1 X126.326 Y86.915 E8.89848
G1 X126.871 Y87.509 E8.93869
G1 X127.357 Y88.144 E8.97859
G1 X127.790 Y88.820 E9.01864
G1 X128.161 Y89.533 E9.05874
G0 F9000 X91.629 Y90.868
G1 F1800 X91.639 Y91.016 E9.06614
G1 X91.595 Y92.019 E9.11623
G1 X91.531 Y92.610 E9.14589
G1 X91.363 Y93.566 E9.19431
G1 X91.102 Y94.549 E9.24505
G1 X90.754 Y95.512 E9.29614
G1 X90.322 Y96.439 E9.34716
G1 X89.815 Y97.321 E9.39792
G1 X89.230 Y98.161 E9.44899
G1 X88.599 Y98.915 E9.49804
G1 X88.188 Y99.346 E9.52775
G1 X87.470 Y100.006 E9.57641
G1 X86.663 Y100.626 E9.62718
G1 X85.804 Y101.177 E9.67809
G1 X84.898 Y101.650 E9.72908
G1 X83.956 Y102.042 E9.77998
G1 X82.984 Y102.350 E9.83085
G1 X81.987 Y102.573 E9.88182
G1 X80.972 Y102.709 E9.93291
G1 X80.125 Y102.747 E9.97521
G1 X79.972 Y102.757 E9.98286
G1 X78.970 Y102.714 E10.03290
G1 X78.376 Y102.650 E10.06271
G1 X77.420 Y102.482 E10.11113
G1 X76.436 Y102.221 E10.16192
G1 X75.474 Y101.872 E10.21298
G1 X74.549 Y101.443 E10.26385
G1 X73.663 Y100.934 E10.31482
G1 X72.824 Y100.349 E10.36585
G1 X72.071 Y99.718 E10.41487
G1 X71.640 Y99.307 E10.44458
G1 X70.980 Y98.589 E10.49323
G1 X70.431 Y97.875 E10.53817
G1 X70.338 Y97.751 E10.54590
G1 X69.808 Y96.920 E10.59507
G1 X69.336 Y96.018 E10.64586
G1 X68.944 Y95.074 E10.69686
G1 X68.636 Y94.101 E10.74778
G1 X68.413 Y93.105 E10.79870
G1 X68.277 Y92.091 E10.84974
G1 X68.239 Y91.239 E10.89229
G1 X68.232 Y91.127 E10.89789
G1 X68.244 Y90.529 E10.92773
G1 X68.328 Y89.545 E10.97700
G1 X68.504 Y88.541 E11.02785
G1 X68.765 Y87.553 E11.07883
G1 X69.114 Y86.592 E11.12984
G1 X69.543 Y85.668 E11.18067
G1 X70.052 Y84.782 E11.23164
G1 X70.637 Y83.943 E11.28267
G1 X71.268 Y83.190 E11.33169
G1 X71.679 Y82.759 E11.36140
G1 X72.397 Y82.099 E11.41005
G1 X73.205 Y81.478 E11.46090
G1 X74.064 Y80.928 E11.51178
G1 X74.968 Y80.455 E11.56269
G1 X75.912 Y80.063 E11.61368
G1 X76.885 Y79.755 E11.66460
G1 X77.881 Y79.532 E11.71552
G1 X78.893 Y79.397 E11.76646
G1 X79.750 Y79.357 E11.80926
G1 X79.898 Y79.347 E11.81666
G1 X80.900 Y79.392 E11.86670
G1 X81.491 Y79.455 E11.89635
G1 X82.447 Y79.623 E11.94478
G1 X83.431 Y79.884 E11.99557
G1 X84.394 Y80.232 E12.04665
G1 X85.319 Y80.663 E12.09756
G1 X86.204 Y81.171 E12.14847
G1 X87.043 Y81.756 E12.19950
G1 X87.796 Y82.387 E12.24852
G1 X88.227 Y82.798 E12.27823
G1 X88.887 Y83.516 E12.32688
G1 X89.507 Y84.323 E12.37765
G1 X90.058 Y85.182 E12.42857
G1 X90.531 Y86.088 E12.47956
G1 X90.923 Y87.030 E12.53046
G1 X91.231 Y88.002 E12.58133
G1 X91.454 Y88.999 E12.63230
G1 X91.589 Y90.012 E12.68329
G1 X91.629 Y90.868 E12.72604
G0 F9000 X57.571 Y98.658
G1 F1800 X57.536 Y99.302 E12.75822
G1 X57.311 Y100.377 E12.81301
G1 X57.043 Y101.085 E12.85078
G1 X56.745 Y101.671 E12.88358
G1 X56.389 Y102.220 E12.91622
G1 X55.980 Y102.723 E12.94857
G1 X55.523 Y103.180 E12.98081
G1 X55.020 Y103.589 E13.01315
G1 X54.475 Y103.943 E13.04558
G1 X53.894 Y104.240 E13.07813
G1 X53.284 Y104.473 E13.11071
G1 X52.658 Y104.640 E13.14303
G1 X51.958 Y104.750 E13.17838
G1 X50.528 Y104.771 E13.24973
G1 X36.444 Y104.771 E13.95239
G1 X35.666 Y104.741 E13.99123
G1 X34.568 Y104.512 E14.04719
G1 X33.853 Y104.243 E14.08530
G1 X33.267 Y103.943 E14.11814
G1 X32.724 Y103.591 E14.15043
G1 X32.218 Y103.180 E14.18295
G1 X31.761 Y102.723 E14.21520
G1 X31.352 Y102.220 E14.24754
G1 X30.996 Y101.671 E14.28018
G1 X30.703 Y101.094 E14.31247
G1 X30.470 Y100.490 E14.34477
G1 X30.301 Y99.860 E14.37731
G1 X30.187 Y99.137 E14.41383
G1 X30.171 Y70.572 E15.83894
G1 X30.171 Y65.371 E16.09842
G1 X57.571 Y65.371 E17.46541
G1 X57.571 Y98.658 E19.12610
G0 F9000 X80.843 Y125.243
G1 F1800 X93.319 Y125.243 E19.74854
G1 X93.320 Y146.643 E20.81619
G1 X80.843 Y146.643 E21.43867
G1 X80.843 Y125.243 E22.50632
G0 F9000 X154.543 Y125.143
G1 F1800 X167.019 Y125.143 E23.12875
G1 X167.020 Y146.443 E24.19141
G1 X154.543 Y146.443 E24.81389
G1 X154.543 Y125.143 E25.87655
G1 F2400 E21.87655
G0 F9000 X53.653 Y99.306
;TYPE:WALL-INNER
G1 F2400 E25.87655
G1 F1800 X53.560 Y99.551 E25.88962
G1 X53.450 Y99.769 E25.90181
G1 X53.313 Y99.980 E25.91436
G1 X53.151 Y100.179 E25.92716
G1 X52.979 Y100.351 E25.93929
G1 X52.780 Y100.513 E25.95210
G1 X52.569 Y100.650 E25.96465
G1 X52.345 Y100.764 E25.97719
G1 X52.119 Y100.851 E25.98927
G1 X51.872 Y100.916 E26.00201
G1 X51.630 Y100.955 E26.01424
G1 X50.496 Y100.971 E26.07082
G1 X36.528 Y100.971 E26.76769
G1 X36.126 Y100.956 E26.78776
G1 X35.635 Y100.853 E26.81279
G1 X35.392 Y100.762 E26.82573
G1 X35.172 Y100.649 E26.83807
G1 X34.762 Y100.351 E26.86336
G1 X34.590 Y100.179 E26.87549
G1 X34.428 Y99.980 E26.88830
G1 X34.291 Y99.769 E26.90085
G1 X34.181 Y99.551 E26.91303
G1 X34.089 Y99.313 E26.92576
G1 X33.987 Y98.835 E26.95014
G1 X33.971 Y69.171 E28.43009
G1 X53.771 Y69.171 E29.41791
G1 X53.771 Y98.557 E30.88399
G1 X53.757 Y98.808 E30.89653
G1 X53.653 Y99.306 E30.92191
G0 F9000 X48.995 Y79.013
G1 F1800 X49.414 Y78.869 E30.94401
G1 X49.814 Y78.680 E30.96608
G1 X50.174 Y78.464 E30.98703
G1 X50.546 Y78.176 E31.01050
G1 X50.867 Y77.870 E31.03263
G1 X51.152 Y77.529 E31.05480
G1 X51.398 Y77.159 E31.07697
G1 X51.603 Y76.766 E31.09908
G1 X51.764 Y76.352 E31.12124
G1 X51.880 Y75.927 E31.14322
G1 X51.947 Y75.514 E31.16409
G1 X51.972 Y75.069 E31.18633
G1 X51.943 Y74.600 E31.20977
G1 X51.869 Y74.162 E31.23194
G1 X51.746 Y73.734 E31.25415
G1 X51.580 Y73.323 E31.27627
G1 X51.368 Y72.932 E31.29846
G1 X51.117 Y72.567 E31.32056
G1 X50.829 Y72.232 E31.34260
G1 X50.524 Y71.944 E31.36353
G1 X50.148 Y71.661 E31.38700
G1 X49.766 Y71.436 E31.40912
G1 X49.362 Y71.251 E31.43129
G1 X48.941 Y71.113 E31.45339
G1 X48.534 Y71.024 E31.47418
G1 X48.091 Y70.976 E31.49641
G1 X47.620 Y70.978 E31.51991
G1 X47.178 Y71.030 E31.54211
G1 X46.746 Y71.128 E31.56421
G1 X46.326 Y71.273 E31.58638
G1 X45.926 Y71.462 E31.60845
G1 X45.568 Y71.677 E31.62928
G1 X45.194 Y71.965 E31.65283
G1 X44.875 Y72.273 E31.67496
G1 X44.589 Y72.613 E31.69712
G1 X44.344 Y72.982 E31.71922
G1 X44.138 Y73.375 E31.74136
G1 X43.977 Y73.789 E31.76352
G1 X43.861 Y74.215 E31.78555
G1 X43.794 Y74.629 E31.80647
G1 X43.770 Y75.073 E31.82865
G1 X43.798 Y75.541 E31.85204
G1 X43.872 Y75.980 E31.87425
G1 X43.995 Y76.407 E31.89642
G1 X44.162 Y76.820 E31.91865
G1 X44.374 Y77.209 E31.94075
G1 X44.624 Y77.575 E31.96286
G1 X44.914 Y77.910 E31.98497
G1 X45.217 Y78.197 E32.00579
G1 X45.593 Y78.481 E32.02930
G1 X45.976 Y78.706 E32.05146
G1 X46.380 Y78.890 E32.07361
G1 X46.799 Y79.027 E32.09560
G1 X47.206 Y79.118 E32.11641
G1 X47.650 Y79.166 E32.13869
G1 X48.121 Y79.164 E32.16219
G1 X48.564 Y79.112 E32.18444
G1 X48.995 Y79.013 E32.20650
G0 F9000 X48.885 Y78.628
;TYPE:WALL-OUTER
G1 F1800 X49.263 Y78.498 E32.22645
G1 X49.625 Y78.327 E32.24642
G1 X49.948 Y78.133 E32.26522
G1 X50.285 Y77.873 E32.28645
G1 X50.574 Y77.596 E32.30642
G1 X50.831 Y77.289 E32.32640
G1 X51.053 Y76.955 E32.34641
G1 X51.238 Y76.601 E32.36634
G1 X51.383 Y76.227 E32.38635
G1 X51.489 Y75.842 E32.40627
G1 X51.549 Y75.471 E32.42502
G1 X51.571 Y75.070 E32.44506
G1 X51.545 Y74.646 E32.46625
G1 X51.478 Y74.251 E32.48624
G1 X51.367 Y73.865 E32.50627
G1 X51.217 Y73.494 E32.52624
G1 X51.027 Y73.141 E32.54624
G1 X50.800 Y72.812 E32.56618
G1 X50.539 Y72.509 E32.58613
G1 X50.265 Y72.250 E32.60494
G1 X49.925 Y71.994 E32.62618
G1 X49.581 Y71.791 E32.64610
G1 X49.216 Y71.624 E32.66613
G1 X48.836 Y71.500 E32.68607
G1 X48.469 Y71.419 E32.70482
G1 X48.070 Y71.376 E32.72484
G1 X47.644 Y71.378 E32.74610
G1 X47.246 Y71.425 E32.76609
G1 X46.856 Y71.513 E32.78604
G1 X46.477 Y71.644 E32.80604
G1 X46.115 Y71.815 E32.82602
G1 X45.793 Y72.008 E32.84475
G1 X45.456 Y72.268 E32.86598
G1 X45.168 Y72.546 E32.88595
G1 X44.910 Y72.853 E32.90596
G1 X44.689 Y73.186 E32.92590
G1 X44.503 Y73.541 E32.94589
G1 X44.358 Y73.914 E32.96586
G1 X44.252 Y74.300 E32.98583
G1 X44.192 Y74.672 E33.00463
G1 X44.171 Y75.072 E33.02461
G1 X44.196 Y75.496 E33.04580
G1 X44.263 Y75.891 E33.06579
G1 X44.374 Y76.276 E33.08578
G1 X44.524 Y76.649 E33.10584
G1 X44.715 Y77.000 E33.12577
G1 X44.941 Y77.330 E33.14573
G1 X45.203 Y77.633 E33.16571
G1 X45.476 Y77.891 E33.18445
G1 X45.816 Y78.148 E33.20572
G1 X46.161 Y78.351 E33.22569
G1 X46.525 Y78.517 E33.24565
G1 X46.905 Y78.641 E33.26559
G1 X47.271 Y78.723 E33.28430
G1 X47.671 Y78.766 E33.30437
G1 X48.097 Y78.764 E33.32563
G1 X48.495 Y78.717 E33.34562
G1 X48.885 Y78.628 E33.36558
G0 F9000 X48.981 Y78.911
G0 X50.865 Y77.869
G0 X51.879 Y75.926
G0 X51.746 Y73.734
G0 X53.871 Y68.981
G0 X54.171 Y68.771
G1 F1800 X54.171 Y98.560 E34.85176
G1 X54.155 Y98.859 E34.86670
G1 X54.037 Y99.422 E34.89539
G1 X53.926 Y99.715 E34.91103
G1 X53.801 Y99.962 E34.92484
G1 X53.633 Y100.220 E34.94020
G1 X53.449 Y100.447 E34.95477
G1 X53.247 Y100.649 E34.96903
G1 X53.020 Y100.833 E34.98361
G1 X52.511 Y101.129 E35.01298
G1 X52.233 Y101.235 E35.02782
G1 X51.960 Y101.307 E35.04191
G1 X51.664 Y101.354 E35.05686
G1 X50.502 Y101.371 E35.11484
G1 X36.513 Y101.371 E35.81276
G1 X36.082 Y101.355 E35.83427
G1 X35.516 Y101.236 E35.86313
G1 X35.233 Y101.130 E35.87821
G1 X34.974 Y100.997 E35.89273
G1 X34.721 Y100.833 E35.90777
G1 X34.494 Y100.649 E35.92235
G1 X34.292 Y100.447 E35.93660
G1 X34.108 Y100.220 E35.95118
G1 X33.940 Y99.962 E35.96654
G1 X33.817 Y99.718 E35.98017
G1 X33.706 Y99.432 E35.99548
G1 X33.633 Y99.158 E36.00963
G1 X33.587 Y98.867 E36.02432
G1 X33.571 Y68.771 E37.52582
G1 X54.171 Y68.771 E38.55356
G0 F9000 X53.631 Y69.753
;TYPE:SKIN
G1 F1800 X53.188 Y69.310 E38.58481
G0 F9000 X52.622 Y69.310
G1 F1800 X53.631 Y70.318 E38.65597
G0 F9000 X53.631 Y70.884
G1 F1800 X52.057 Y69.310 E38.76702
G0 F9000 X51.491 Y69.310
G1 F1800 X53.631 Y71.450 E38.91801
G0 F9000 X53.631 Y72.015
G1 F1800 X50.925 Y69.310 E39.10890
G0 F9000 X50.360 Y69.310
G1 F1800 X53.631 Y72.581 E39.33969
G0 F9000 X53.631 Y73.147
G1 F1800 X49.794 Y69.310 E39.61041
G0 F9000 X49.228 Y69.310
G1 F1800 X53.631 Y73.713 E39.92106
G0 F9000 X53.631 Y74.278
G1 F1800 X48.663 Y69.310 E40.27158
G0 F9000 X48.097 Y69.310
G1 F1800 X50.772 Y71.985 E40.46032
G0 F9000 X50.985 Y72.199
G1 F1800 X53.631 Y74.844 E40.64697
G0 F9000 X53.631 Y75.410
G1 F1800 X51.856 Y73.635 E40.77221
G0 F9000 X52.050 Y74.394
G1 F1800 X53.631 Y75.975 E40.88376
G0 F9000 X53.631 Y76.541
G1 F1800 X52.108 Y75.019 E40.99118
G0 F9000 X52.081 Y75.557
G1 F1800 X53.631 Y77.107 E41.10054
G0 F9000 X53.631 Y77.672
G1 F1800 X51.994 Y76.036 E41.21600
G0 F9000 X51.866 Y76.473
G1 F1800 X53.631 Y78.238 E41.34053
G0 F9000 X53.631 Y78.804
G1 F1800 X51.702 Y76.875 E41.47663
G0 F9000 X51.507 Y77.245
G1 F1800 X53.631 Y79.369 E41.62649
G0 F9000 X53.631 Y79.935
G1 F1800 X51.281 Y77.585 E41.79230
G0 F9000 X51.026 Y77.896
G1 F1800 X53.631 Y80.501 E41.97610
G0 F9000 X53.631 Y81.066
G1 F1800 X50.744 Y78.180 E42.17975
G0 F9000 X50.435 Y78.437
G1 F1800 X53.631 Y81.632 E42.40521
G0 F9000 X53.631 Y82.198
G1 F1800 X50.102 Y78.669 E42.65420
G0 F9000 X49.737 Y78.870
G1 F1800 X53.631 Y82.764 E42.92895
G0 F9000 X53.631 Y83.329
G1 F1800 X49.342 Y79.041 E43.23152
G0 F9000 X48.911 Y79.175
G1 F1800 X53.631 Y83.895 E43.56454
G0 F9000 X53.631 Y84.461
G1 F1800 X48.436 Y79.266 E43.93108
G0 F9000 X47.909 Y79.304
G1 F1800 X53.631 Y85.026 E44.33480
